assets/img/help/verify-your-id.svg

<svg width="72" height="69" viewBox="0 0 72 69" fill="none" xmlns="http://www.w3.org/2000/svg">
<path d="M69.705 34.5C69.705 52.9115 54.7796 67.837 36.368 67.837C17.9565 67.837 3.03101 52.9115 3.03101 34.5C3.03101 16.0885 17.9565 1.16296 36.368 1.16296C54.7796 1.16296 69.705 16.0885 69.705 34.5Z" fill="#EBF3FA"/>
<path fill-rule="evenodd" clip-rule="evenodd" d="M1.86792 34.4999C1.86792 15.4462 17.3141 0 36.3679 0C55.4217 0 70.8678 15.4462 70.8678 34.4999H68.542C68.542 16.7307 54.1371 2.32584 36.3679 2.32584C18.5986 2.32584 4.19376 16.7307 4.19376 34.4999H1.86792Z" fill="#A8B6C6"/>
<path d="M21.283 11.8296H67.8243V37.2128C67.8243 40.4241 65.2211 43.0274 62.0097 43.0274H27.0976C23.8862 43.0274 21.283 40.4241 21.283 37.2128V11.8296Z" fill="white"/>
<path fill-rule="evenodd" clip-rule="evenodd" d="M20.1201 6.58975C20.1201 3.37843 22.7234 0.775146 25.9347 0.775146H63.9234C67.1347 0.775146 69.738 3.37844 69.738 6.58976V38.3762C69.738 41.5875 67.1347 44.1908 63.9234 44.1908H25.9347C22.7234 44.1908 20.1201 41.5875 20.1201 38.3762V6.58975ZM25.9347 3.10099C24.0079 3.10099 22.446 4.66296 22.446 6.58975V38.3762C22.446 40.303 24.0079 41.865 25.9347 41.865H63.9234C65.8502 41.865 67.4122 40.303 67.4122 38.3762V6.58976C67.4122 4.66296 65.8502 3.10099 63.9234 3.10099H25.9347Z" fill="#112E51"/>
<path d="M21.283 7.75248C21.283 4.54116 23.8862 1.93787 27.0976 1.93787H62.7604C65.9717 1.93787 68.575 4.54116 68.575 7.75248V11.8299H21.283V7.75248Z" fill="#112E51"/>
<path d="M25.8736 6.50445C25.8736 6.9247 25.5181 7.26538 25.0796 7.26538C24.6411 7.26538 24.2856 6.9247 24.2856 6.50445C24.2856 6.08421 24.6411 5.74353 25.0796 5.74353C25.5181 5.74353 25.8736 6.08421 25.8736 6.50445Z" fill="white"/>
<path d="M29.0491 6.50335C29.0491 6.9236 28.6937 7.26428 28.2552 7.26428C27.8167 7.26428 27.4612 6.9236 27.4612 6.50335C27.4612 6.08311 27.8167 5.74243 28.2552 5.74243C28.6937 5.74243 29.0491 6.08311 29.0491 6.50335Z" fill="white"/>
<path d="M32.2252 6.50335C32.2252 6.9236 31.8697 7.26428 31.4312 7.26428C30.9927 7.26428 30.6372 6.9236 30.6372 6.50335C30.6372 6.08311 30.9927 5.74243 31.4312 5.74243C31.8697 5.74243 32.2252 6.08311 32.2252 6.50335Z" fill="white"/>
<path fill-rule="evenodd" clip-rule="evenodd" d="M47.9482 6.88366C47.9482 5.92027 48.7292 5.13928 49.6926 5.13928H65.5721C66.5355 5.13928 67.3165 5.92027 67.3165 6.88366C67.3165 7.84706 66.5355 8.62805 65.5721 8.62805H49.6926C48.7292 8.62805 47.9482 7.84706 47.9482 6.88366Z" fill="white"/>
<path d="M71.002 16.2808C71.002 19.4921 68.3987 22.0954 65.1874 22.0954C61.9761 22.0954 59.3728 19.4921 59.3728 16.2808C59.3728 13.0695 61.9761 10.4662 65.1874 10.4662C68.3987 10.4662 71.002 13.0695 71.002 16.2808Z" fill="white"/>
<path fill-rule="evenodd" clip-rule="evenodd" d="M65.1874 22.0948C68.3987 22.0948 71.002 19.492 71.002 16.2805C71.002 13.069 68.3987 10.4662 65.1874 10.4662C61.9761 10.4662 59.3728 13.069 59.3728 16.2805C59.3728 19.492 61.9761 22.0948 65.1874 22.0948ZM68.8289 15.0455L64.5148 19.3593C64.3683 19.5054 64.1308 19.5054 63.9843 19.3593L61.5459 16.921C61.3994 16.7741 61.3994 16.5368 61.5459 16.3907L62.0764 15.8596C62.223 15.7135 62.4604 15.7135 62.607 15.8596L64.2496 17.5021L67.7678 13.9842C67.9143 13.838 68.1519 13.838 68.2983 13.9842L68.8289 14.5145C68.9754 14.6613 68.9754 14.8986 68.8289 15.0455Z" fill="#63BB60"/>
<path d="M34 30.875C34 31.4963 34.7275 32 35.625 32L58.375 32C59.2725 32 60 31.4963 60 30.875V30.125C60 29.5037 59.2725 29 58.375 29L35.625 29C34.7275 29 34 29.5037 34 30.125V30.875Z" fill="#A8B6C6"/>
<path d="M36 35.875C36 36.4963 36.7387 37 37.65 37H56.35C57.2613 37 58 36.4963 58 35.875V35.125C58 34.5037 57.2613 34 56.35 34H37.65C36.7387 34 36 34.5037 36 35.125V35.875Z" fill="#A8B6C6"/>
<path fill-rule="evenodd" clip-rule="evenodd" d="M45.9292 14.3425C42.2889 14.3425 39.3394 17.292 39.3394 20.9324C39.3394 24.5728 42.2889 27.5223 45.9292 27.5223C49.5696 27.5223 52.5191 24.5728 52.5191 20.9324C52.5191 17.292 49.5696 14.3425 45.9292 14.3425ZM45.929 16.8933C47.2204 16.8933 48.2673 17.9402 48.2673 19.2316C48.2673 20.5231 47.2204 21.57 45.929 21.57C44.6376 21.57 43.5906 20.5231 43.5906 19.2316C43.5906 17.9402 44.6376 16.8933 45.929 16.8933ZM42.0365 24.2221C42.9718 25.3275 44.3695 26.0343 45.9293 26.0343C47.4891 26.0343 48.8868 25.3275 49.8221 24.2221C49.3225 23.2814 48.3447 22.6331 47.2047 22.6331C47.141 22.6331 47.0772 22.6437 47.0161 22.6623C46.6733 22.7739 46.3093 22.8456 45.9293 22.8456C45.5493 22.8456 45.1879 22.7739 44.8425 22.6623C44.7814 22.6437 44.7176 22.6331 44.6538 22.6331C43.5139 22.6331 42.536 23.2814 42.0365 24.2221Z" fill="#A8B6C6"/>
<mask id="mask0" mask-type="alpha" maskUnits="userSpaceOnUse" x="0" y="13" width="45" height="55">
<path fill-rule="evenodd" clip-rule="evenodd" d="M27.311 45.0461V49.1194H28.192V49.1194C36.9501 49.1194 44.05 56.2599 44.05 65.068V67.0616H0V65.068C0 56.2599 7.09986 49.1194 15.858 49.1194V49.1194H16.739V45.0461C12.9425 43.2323 10.2135 39.5252 9.7582 35.1381C8.47528 34.9557 7.4885 33.8469 7.4885 32.5063V29.4052C7.4885 28.0881 8.44098 26.9947 9.69099 26.7838V25.418V25.418C9.69099 18.5672 15.2131 13.0135 22.025 13.0135V13.0135V13.0135C28.8369 13.0135 34.359 18.5672 34.359 25.418V26.7838C35.609 26.9947 36.5615 28.0881 36.5615 29.4052V32.5063C36.5615 33.8469 35.5747 34.9557 34.2918 35.1381C33.8365 39.5252 31.1075 43.2323 27.311 45.0461Z" fill="white"/>
</mask>
<g mask="url(#mask0)">
<path fill-rule="evenodd" clip-rule="evenodd" d="M51.0981 13.0135H-7.04785V67.0616H-2.53725L3.45512 44.7402C3.45512 44.7402 6.0914 53.0827 25.4522 67.0616H51.0981V13.0135Z" fill="#D08B5B"/>
</g>
<path fill-rule="evenodd" clip-rule="evenodd" d="M44.0504 65.0799C44.0504 56.7163 37.6491 49.8563 29.5052 49.1852C29.5109 49.2624 29.5139 49.3402 29.5139 49.4183C29.5139 52.0461 26.2104 54.1763 22.1355 54.1763C18.0605 54.1763 14.7571 52.0461 14.7571 49.4183C14.7571 49.3345 14.7605 49.2512 14.7671 49.1685C12.1237 49.3491 9.65814 50.1813 7.52783 51.5066C9.74848 55.7838 16.2165 63.1913 28.7743 67.062H44.0504V65.0799Z" fill="#E6E6E6"/>
<mask id="mask1" mask-type="alpha" maskUnits="userSpaceOnUse" x="0" y="49" width="45" height="19">
<path fill-rule="evenodd" clip-rule="evenodd" d="M29.5053 49.1848C37.6492 49.856 44.0505 56.7159 44.0505 65.0795V67.0616H0.000488281V65.0795C0.000488281 56.6402 6.51812 49.7319 14.7672 49.1681C14.7606 49.2508 14.7572 49.3342 14.7572 49.418C14.7572 52.0457 18.0606 54.176 22.1356 54.176C26.2106 54.176 29.514 52.0457 29.514 49.418C29.514 49.3398 29.511 49.262 29.5053 49.1848Z" fill="white"/>
</mask>
<g mask="url(#mask1)">
<path fill-rule="evenodd" clip-rule="evenodd" d="M51.0986 42.6959H-7.04736V67.0619H-2.59451L3.39794 44.7402C3.39794 44.7402 6.03427 53.0828 25.3954 67.0619H51.0986V42.6959Z" fill="#262E33"/>
</g>
<mask id="mask2" mask-type="alpha" maskUnits="userSpaceOnUse" x="0" y="49" width="45" height="19">
<path fill-rule="evenodd" clip-rule="evenodd" d="M29.5053 49.1848C37.6492 49.856 44.0505 56.7159 44.0505 65.0795V67.0616H0.000488281V65.0795C0.000488281 56.6402 6.51812 49.7319 14.7672 49.1681C14.7606 49.2508 14.7572 49.3342 14.7572 49.418C14.7572 52.0457 18.0606 54.176 22.1356 54.176C26.2106 54.176 29.514 52.0457 29.514 49.418C29.514 49.3398 29.511 49.262 29.5053 49.1848Z" fill="white"/>
</mask>
<g mask="url(#mask2)">
<g opacity="0.6">
<path d="M30.8653 49.7511C30.8653 53.0436 26.9569 55.7127 22.1356 55.7127C17.3144 55.7127 13.406 53.0436 13.406 49.7511C13.406 46.4585 17.3144 43.7894 22.1356 43.7894C26.9569 43.7894 30.8653 46.4585 30.8653 49.7511Z" fill="black" fill-opacity="0.16"/>
</g>
</g>
<path fill-rule="evenodd" clip-rule="evenodd" d="M14.0967 57.9588C14.0967 57.929 14.0966 57.8992 14.0966 57.8694C14.0966 54.6958 14.4799 51.7183 15.1505 49.1469C12.4459 49.2664 9.91718 50.0673 7.72998 51.383C9.27155 53.227 11.3382 55.4296 14.0967 57.9588ZM28.994 67.0622H44.0506V65.0801C44.0506 56.5863 37.4486 49.6434 29.124 49.1585C29.7928 51.7274 30.1749 54.7007 30.1749 57.8696C30.1749 61.2384 29.743 64.3864 28.994 67.0622Z" fill="#3A4C5A"/>
<path d="M32.8179 61.7452L34.9225 60.1577V60.1577C35.2404 59.9179 35.6784 59.9218 35.992 60.1671L37.4431 61.3022L32.8179 61.7452Z" fill="#E6E6E6"/>
<path fill-rule="evenodd" clip-rule="evenodd" d="M14.9839 58.7618C14.587 54.8089 14.6583 51.5209 15.198 48.8977C14.7636 48.9057 14.3231 48.9795 13.8765 49.1192L10.5085 54.4674C11.7717 55.7794 13.2517 57.2131 14.9839 58.7618Z" fill="#2F4351"/>
<path d="M28.8531 48.8979C29.7341 53.1804 29.367 59.235 27.7519 67.0616H31.2759L34.3594 59.0873L33.0379 57.0938L34.3594 55.7647L30.1746 49.1195C29.728 48.9797 29.2875 48.9059 28.8531 48.8979Z" fill="#2F4351"/>
<path fill-rule="evenodd" clip-rule="evenodd" d="M17.8665 38.0721C18.0994 40.1746 19.8725 41.8094 22.0252 41.8094C24.1846 41.8094 25.962 40.1645 26.1862 38.0526C26.2042 37.8826 26.0155 37.6007 25.7789 37.6007C22.4985 37.6007 19.9853 37.6007 18.3001 37.6007C18.0622 37.6007 17.8431 37.8617 17.8665 38.0721Z" fill="black" fill-opacity="0.7"/>
<mask id="mask3" mask-type="alpha" maskUnits="userSpaceOnUse" x="17" y="37" width="10" height="5">
<path fill-rule="evenodd" clip-rule="evenodd" d="M17.8665 38.0721C18.0994 40.1746 19.8725 41.8094 22.0252 41.8094C24.1846 41.8094 25.962 40.1645 26.1862 38.0526C26.2042 37.8826 26.0155 37.6007 25.7789 37.6007C22.4985 37.6007 19.9853 37.6007 18.3001 37.6007C18.0622 37.6007 17.8431 37.8617 17.8665 38.0721Z" fill="white"/>
</mask>
<g mask="url(#mask3)">
<path d="M18.7212 36.9359C18.7212 35.9572 19.5146 35.1638 20.4933 35.1638H23.7769C24.7556 35.1638 25.5489 35.9572 25.5489 36.9359V36.9359C25.5489 37.9146 24.7556 38.708 23.7769 38.708H20.4933C19.5146 38.708 18.7212 37.9146 18.7212 36.9359V36.9359Z" fill="white"/>
</g>
<mask id="mask4" mask-type="alpha" maskUnits="userSpaceOnUse" x="17" y="37" width="10" height="5">
<path fill-rule="evenodd" clip-rule="evenodd" d="M17.8665 38.0721C18.0994 40.1746 19.8725 41.8094 22.0252 41.8094C24.1846 41.8094 25.962 40.1645 26.1862 38.0526C26.2042 37.8826 26.0155 37.6007 25.7789 37.6007C22.4985 37.6007 19.9853 37.6007 18.3001 37.6007C18.0622 37.6007 17.8431 37.8617 17.8665 38.0721Z" fill="white"/>
</mask>
<g mask="url(#mask4)">
<path d="M23.347 42.4742C23.347 43.8199 22.2623 44.9108 20.9242 44.9108C19.5862 44.9108 18.5015 43.8199 18.5015 42.4742C18.5015 41.1285 19.5862 40.0376 20.9242 40.0376C22.2623 40.0376 23.347 41.1285 23.347 42.4742Z" fill="#FF4F6D"/>
<path d="M25.5494 42.4736C25.5494 43.8193 24.4647 44.9102 23.1266 44.9102C21.7886 44.9102 20.7039 43.8193 20.7039 42.4736C20.7039 41.1279 21.7886 40.037 23.1266 40.037C24.4647 40.037 25.5494 41.1279 25.5494 42.4736Z" fill="#FF4F6D"/>
</g>
<path d="M19.3823 33.835C19.3823 34.8136 20.5656 35.607 22.0253 35.607V35.607C23.485 35.607 24.6683 34.8136 24.6683 33.835" fill="black" fill-opacity="0.16"/>
<path d="M13.2504 29.9473C13.6571 29.1058 14.5728 28.5192 15.6373 28.5192C16.698 28.5192 17.6111 29.1017 18.0199 29.9384C18.1414 30.1869 17.9685 30.3904 17.7942 30.2396C17.2544 29.7729 16.4877 29.4814 15.6373 29.4814C14.8135 29.4814 14.0683 29.7549 13.5317 30.1963C13.3355 30.3578 13.1314 30.1934 13.2504 29.9473Z" fill="black" fill-opacity="0.6"/>
<path d="M26.0248 29.9471C26.4315 29.1056 27.3472 28.5189 28.4117 28.5189C29.4725 28.5189 30.3855 29.1015 30.7943 29.9382C30.9158 30.1867 30.743 30.3901 30.5686 30.2394C30.0288 29.7726 29.2621 29.4811 28.4117 29.4811C27.5879 29.4811 26.8427 29.7547 26.3061 30.1961C26.1099 30.3575 25.9058 30.1932 26.0248 29.9471Z" fill="black" fill-opacity="0.6"/>
<path d="M13.1338 27.0043C13.9961 25.7841 16.36 25.0998 18.3962 25.6027C18.6325 25.6611 18.871 25.5158 18.929 25.2782C18.9871 25.0406 18.8426 24.8006 18.6063 24.7423C16.2416 24.1582 13.5043 24.9506 12.4157 26.491C12.2748 26.6905 12.3213 26.9671 12.5196 27.1088C12.7179 27.2505 12.9929 27.2038 13.1338 27.0043Z" fill="black" fill-opacity="0.6"/>
<path d="M30.9165 27.0036C30.0542 25.7834 27.6903 25.0991 25.6541 25.602C25.4178 25.6604 25.1793 25.515 25.1212 25.2774C25.0632 25.0398 25.2077 24.7999 25.444 24.7415C27.8087 24.1575 30.546 24.9499 31.6346 26.4903C31.7755 26.6898 31.729 26.9663 31.5307 27.1081C31.3324 27.2498 31.0574 27.203 30.9165 27.0036Z" fill="black" fill-opacity="0.6"/>
<mask id="mask5" mask-type="alpha" maskUnits="userSpaceOnUse" x="1" y="8" width="45" height="56">
<path fill-rule="evenodd" clip-rule="evenodd" d="M6.16724 43.2583V23.656C6.16724 22.8736 6.25492 22.1118 6.42095 21.38C7.0934 16.941 9.64174 13.4145 12.5545 11.2413C16.9385 7.97192 24.3251 7.0286 26.8811 10.9139C28.7865 10.0631 31.6103 10.8386 33.6985 12.7919C35.8052 14.8774 37.4867 19.4808 36.4863 23.2478C36.5093 23.5282 36.5211 23.8117 36.5211 24.0979V28.9381C36.327 27.8363 35.458 26.9691 34.3592 26.7836V26.7469C33.0298 21.9765 29.1238 19.7871 26.7451 17.6157C23.0241 21.8013 11.4142 21.8161 7.48874 30.0695V32.2846C7.48874 33.6178 8.46464 34.7217 9.73718 34.9133C10.1211 39.3983 12.8781 43.2012 16.7392 45.0459V45.1321C17.3846 54.8464 15.2764 67.0166 1.54199 63.2958C4.53865 61.5321 6.12498 50.2391 6.16724 43.2583ZM27.3109 45.0459C31.1721 43.2012 33.9291 39.3983 34.313 34.9133C35.4335 34.7446 36.324 33.8686 36.5208 32.7515V33.0533V33.0533C36.5208 36.5594 37.3483 40.0154 38.9353 43.1371L44.8707 54.8123C46.4044 57.829 45.9541 61.3407 44.0038 63.8427C43.3817 55.607 36.5402 49.1192 28.1919 49.1192V49.1192H27.3109V45.0459Z" fill="white"/>
</mask>
<g mask="url(#mask5)">
<path fill-rule="evenodd" clip-rule="evenodd" d="M59.688 8.36072H1.54199V51.6531L3.39782 44.7402C3.39782 44.7402 6.25962 53.7963 27.9172 68.8479C28.8666 69.5077 29.2942 70.01 29.3036 70.3831H59.688V8.36072ZM15.4047 70.3831C13.6379 70.1575 11.8782 69.9168 10.245 69.6933C7.3357 69.2953 4.82803 68.9522 3.39782 68.8479C2.70695 68.7975 2.09098 68.7468 1.54199 68.6966V70.3831H15.4047Z" fill="#4A312C"/>
</g>
<path fill-rule="evenodd" clip-rule="evenodd" d="M7.48877 30.0696C11.4142 22.907 23.0242 22.8942 26.7451 19.2618C29.119 21.1424 33.0139 22.5973 34.3511 26.7179C33.0139 21.9677 29.119 19.7827 26.7451 17.6157C23.0242 21.8014 11.4142 21.8161 7.48877 30.0696Z" fill="black" fill-opacity="0.16"/>
<path fill-rule="evenodd" clip-rule="evenodd" d="M67.3937 43.0495C63.6491 56.6689 51.1769 66.6741 36.3679 66.6741C18.5986 66.6741 4.19376 52.2693 4.19376 34.5H1.86792C1.86792 53.5538 17.3141 68.9999 36.3679 68.9999C55.4217 68.9999 70.8678 53.5538 70.8678 34.5H69.7479V38.3762C69.7479 40.2912 68.8221 41.99 67.3937 43.0495Z" fill="#A8B6C6"/>
</svg>

<svg width="72" height="69" fill="none" xmlns="http://www.w3.org/2000/svg"><path d="M69.705 34.5c0 18.411-14.925 33.337-33.337 33.337-18.412 0-33.337-14.926-33.337-33.337 0-18.412 14.925-33.337 33.337-33.337 18.412 0 33.337 14.925 33.337 33.337z" fill="#EBF3FA"/><path fill-rule="evenodd" clip-rule="evenodd" d="M1.868 34.5c0-19.054 15.446-34.5 34.5-34.5 19.054 0 34.5 15.446 34.5 34.5h-2.326c0-17.77-14.405-32.174-32.174-32.174-17.77 0-32.174 14.405-32.174 32.174H1.868z" fill="#A8B6C6"/><path d="M21.283 11.83h46.541v25.383a5.815 5.815 0 01-5.814 5.814H27.098a5.815 5.815 0 01-5.815-5.814V11.83z" fill="#fff"/><path fill-rule="evenodd" clip-rule="evenodd" d="M20.12 6.59A5.815 5.815 0 0125.935.775h37.988a5.815 5.815 0 015.815 5.815v31.786a5.815 5.815 0 01-5.815 5.815H25.935a5.815 5.815 0 01-5.815-5.815V6.59zm5.815-3.49a3.489 3.489 0 00-3.489 3.489v31.786a3.489 3.489 0 003.489 3.489h37.988a3.489 3.489 0 003.49-3.489V6.59a3.489 3.489 0 00-3.49-3.489H25.935z" fill="#112E51"/><path d="M21.283 7.752a5.815 5.815 0 015.815-5.814H62.76a5.815 5.815 0 015.815 5.814v4.078H21.283V7.752z" fill="#112E51"/><path d="M25.874 6.504c0 .42-.356.761-.794.761-.439 0-.794-.34-.794-.76s.355-.761.794-.761c.438 0 .794.34.794.76zm3.176-.001c0 .42-.356.761-.795.761-.438 0-.794-.34-.794-.76s.356-.762.794-.762c.439 0 .794.341.794.761zm3.175 0c0 .42-.355.761-.794.761-.438 0-.794-.34-.794-.76s.356-.762.794-.762c.439 0 .794.341.794.761z" fill="#fff"/><path fill-rule="evenodd" clip-rule="evenodd" d="M47.948 6.884c0-.964.781-1.745 1.745-1.745h15.88a1.744 1.744 0 110 3.489h-15.88a1.744 1.744 0 01-1.745-1.744z" fill="#fff"/><path d="M71.002 16.28a5.815 5.815 0 11-11.63 0 5.815 5.815 0 0111.63 0z" fill="#fff"/><path fill-rule="evenodd" clip-rule="evenodd" d="M65.187 22.095a5.814 5.814 0 10.001-11.629 5.814 5.814 0 000 11.629zm3.642-7.05l-4.314 4.314a.376.376 0 01-.53 0l-2.44-2.438a.375.375 0 010-.53l.531-.531a.376.376 0 01.531 0l1.643 1.642 3.518-3.518a.376.376 0 01.53 0l.53.53a.376.376 0 010 .532z" fill="#63BB60"/><path d="M34 30.875c0 .621.727 1.125 1.625 1.125h22.75c.898 0 1.625-.504 1.625-1.125v-.75c0-.621-.727-1.125-1.625-1.125h-22.75c-.898 0-1.625.504-1.625 1.125v.75zm2 5c0 .621.739 1.125 1.65 1.125h18.7c.911 0 1.65-.504 1.65-1.125v-.75c0-.621-.739-1.125-1.65-1.125h-18.7c-.911 0-1.65.504-1.65 1.125v.75z" fill="#A8B6C6"/><path fill-rule="evenodd" clip-rule="evenodd" d="M45.93 14.342a6.589 6.589 0 00-6.59 6.59c0 3.64 2.949 6.59 6.59 6.59a6.59 6.59 0 006.59-6.59 6.59 6.59 0 00-6.59-6.59zm-.001 2.551a2.338 2.338 0 110 4.677 2.338 2.338 0 010-4.677zm-3.893 7.33a5.092 5.092 0 003.893 1.811 5.09 5.09 0 003.893-1.812 2.963 2.963 0 00-2.617-1.589.65.65 0 00-.189.03 3.505 3.505 0 01-1.087.183 3.51 3.51 0 01-1.087-.184.65.65 0 00-.188-.029c-1.14 0-2.118.648-2.618 1.59z" fill="#A8B6C6"/><mask id="a" maskUnits="userSpaceOnUse" x="0" y="13" width="45" height="55"><path fill-rule="evenodd" clip-rule="evenodd" d="M27.311 45.046v4.073h.881c8.758 0 15.858 7.14 15.858 15.949v1.994H0v-1.994c0-8.808 7.1-15.949 15.858-15.949h.881v-4.073a12.41 12.41 0 01-6.98-9.908 2.654 2.654 0 01-2.27-2.632v-3.1c0-1.318.952-2.411 2.202-2.622v-1.366c0-6.85 5.522-12.404 12.334-12.404 6.812 0 12.334 5.553 12.334 12.404v1.366a2.654 2.654 0 012.203 2.621v3.101c0 1.34-.987 2.45-2.27 2.632a12.41 12.41 0 01-6.981 9.908z" fill="#fff"/></mask><g mask="url(#a)"><path fill-rule="evenodd" clip-rule="evenodd" d="M51.098 13.014H-7.048v54.048h4.51L3.456 44.74s2.636 8.343 21.997 22.322h25.646V13.014z" fill="#D08B5B"/></g><path fill-rule="evenodd" clip-rule="evenodd" d="M44.05 65.08c0-8.364-6.4-15.224-14.545-15.895.006.077.009.155.009.233 0 2.628-3.304 4.758-7.378 4.758-4.075 0-7.379-2.13-7.379-4.758 0-.084.004-.167.01-.25a15.701 15.701 0 00-7.24 2.339c2.221 4.277 8.69 11.684 21.247 15.555H44.05V65.08z" fill="#E6E6E6"/><mask id="b" maskUnits="userSpaceOnUse" x="0" y="49" width="45" height="19"><path fill-rule="evenodd" clip-rule="evenodd" d="M29.505 49.185c8.144.671 14.546 7.53 14.546 15.894v1.983H0v-1.983c0-8.439 6.517-15.347 14.766-15.91-.006.082-.01.165-.01.249 0 2.628 3.304 4.758 7.379 4.758 4.075 0 7.378-2.13 7.378-4.758 0-.078-.003-.156-.009-.233z" fill="#fff"/></mask><g mask="url(#b)"><path fill-rule="evenodd" clip-rule="evenodd" d="M51.099 42.696H-7.047v24.366h4.452L3.398 44.74s2.636 8.343 21.997 22.322H51.1V42.696z" fill="#262E33"/></g><mask id="c" maskUnits="userSpaceOnUse" x="0" y="49" width="45" height="19"><path fill-rule="evenodd" clip-rule="evenodd" d="M29.505 49.185c8.144.671 14.546 7.53 14.546 15.894v1.983H0v-1.983c0-8.439 6.517-15.347 14.766-15.91-.006.082-.01.165-.01.249 0 2.628 3.304 4.758 7.379 4.758 4.075 0 7.378-2.13 7.378-4.758 0-.078-.003-.156-.009-.233z" fill="#fff"/></mask><g mask="url(#c)"><path d="M30.865 49.751c0 3.293-3.908 5.962-8.73 5.962-4.82 0-8.729-2.67-8.729-5.962s3.908-5.962 8.73-5.962c4.82 0 8.73 2.67 8.73 5.962z" fill="#000" fill-opacity=".16" opacity=".6"/></g><path fill-rule="evenodd" clip-rule="evenodd" d="M14.097 57.959v-.09c0-3.173.383-6.15 1.053-8.722-2.704.12-5.233.92-7.42 2.236 1.542 1.844 3.608 4.047 6.367 6.576zm14.897 9.103h15.057V65.08c0-8.494-6.602-15.437-14.927-15.922.669 2.57 1.05 5.543 1.05 8.712 0 3.368-.431 6.516-1.18 9.192z" fill="#3A4C5A"/><path d="M32.818 61.745l2.105-1.587a.877.877 0 011.069.01l1.451 1.134-4.625.443z" fill="#E6E6E6"/><path fill-rule="evenodd" clip-rule="evenodd" d="M14.984 58.762c-.397-3.953-.326-7.241.214-9.864a4.703 4.703 0 00-1.322.221l-3.367 5.348a83.03 83.03 0 004.475 4.295z" fill="#2F4351"/><path d="M28.853 48.898c.881 4.282.514 10.337-1.101 18.164h3.524l3.083-7.975-1.321-1.993 1.321-1.33-4.184-6.645a4.7 4.7 0 00-1.322-.221z" fill="#2F4351"/><path fill-rule="evenodd" clip-rule="evenodd" d="M17.866 38.072c.233 2.103 2.006 3.737 4.16 3.737 2.159 0 3.936-1.645 4.16-3.756.018-.17-.17-.452-.407-.452H18.3c-.238 0-.457.26-.434.471z" fill="#000" fill-opacity=".7"/><mask id="d" maskUnits="userSpaceOnUse" x="17" y="37" width="10" height="5"><path fill-rule="evenodd" clip-rule="evenodd" d="M17.866 38.072c.233 2.103 2.006 3.737 4.16 3.737 2.159 0 3.936-1.645 4.16-3.756.018-.17-.17-.452-.407-.452H18.3c-.238 0-.457.26-.434.471z" fill="#fff"/></mask><g mask="url(#d)"><path d="M18.721 36.936c0-.979.794-1.772 1.772-1.772h3.284a1.772 1.772 0 010 3.544h-3.284a1.772 1.772 0 01-1.772-1.772z" fill="#fff"/></g><mask id="e" maskUnits="userSpaceOnUse" x="17" y="37" width="10" height="5"><path fill-rule="evenodd" clip-rule="evenodd" d="M17.866 38.072c.233 2.103 2.006 3.737 4.16 3.737 2.159 0 3.936-1.645 4.16-3.756.018-.17-.17-.452-.407-.452H18.3c-.238 0-.457.26-.434.471z" fill="#fff"/></mask><g mask="url(#e)" fill="#FF4F6D"><path d="M23.347 42.474a2.43 2.43 0 01-2.423 2.437 2.43 2.43 0 01-2.422-2.437 2.43 2.43 0 012.422-2.436 2.43 2.43 0 012.423 2.436z"/><path d="M25.55 42.474a2.43 2.43 0 01-2.423 2.436 2.43 2.43 0 01-2.423-2.436 2.43 2.43 0 012.423-2.437 2.43 2.43 0 012.422 2.437z"/></g><path d="M19.382 33.835c0 .979 1.184 1.772 2.643 1.772 1.46 0 2.643-.793 2.643-1.772" fill="#000" fill-opacity=".16"/><path d="M13.25 29.947c.407-.841 1.323-1.428 2.387-1.428 1.061 0 1.974.583 2.383 1.42.121.248-.052.451-.226.3-.54-.466-1.306-.758-2.157-.758-.824 0-1.569.274-2.105.715-.197.162-.4-.003-.282-.249zm12.775 0c.407-.841 1.322-1.428 2.387-1.428 1.06 0 1.974.583 2.382 1.42.122.248-.051.451-.225.3-.54-.466-1.307-.758-2.157-.758-.824 0-1.57.274-2.106.715-.196.162-.4-.003-.281-.249zm-12.891-2.943c.862-1.22 3.226-1.904 5.262-1.401a.443.443 0 00.21-.86c-2.364-.585-5.102.208-6.19 1.748a.444.444 0 00.104.618.439.439 0 00.614-.105zm17.782 0c-.862-1.22-3.226-1.905-5.262-1.402a.443.443 0 01-.21-.86c2.365-.585 5.102.208 6.19 1.748.142.2.095.476-.103.618a.439.439 0 01-.614-.104z" fill="#000" fill-opacity=".6"/><mask id="f" maskUnits="userSpaceOnUse" x="1" y="8" width="45" height="56"><path fill-rule="evenodd" clip-rule="evenodd" d="M6.167 43.258V23.656c0-.782.088-1.544.254-2.276.672-4.439 3.22-7.965 6.134-10.139 4.384-3.27 11.77-4.212 14.326-.327 1.905-.85 4.73-.075 6.818 1.878 2.106 2.085 3.788 6.689 2.787 10.456.023.28.035.564.035.85v4.84a2.653 2.653 0 00-2.162-2.154v-.037c-1.33-4.77-5.235-6.96-7.614-9.131-3.72 4.185-15.33 4.2-19.256 12.454v2.215c0 1.333.976 2.437 2.248 2.628a12.41 12.41 0 007.002 10.133v.086c.646 9.714-1.463 21.885-15.197 18.164 2.997-1.764 4.583-13.057 4.625-20.038zm21.144 1.788a12.41 12.41 0 007.002-10.133 2.652 2.652 0 002.208-2.161v.301c0 3.506.827 6.962 2.414 10.084l5.936 11.675a8.458 8.458 0 01-.867 9.03c-.622-8.235-7.464-14.723-15.812-14.723h-.881v-4.073z" fill="#fff"/></mask><g mask="url(#f)"><path fill-rule="evenodd" clip-rule="evenodd" d="M59.688 8.36H1.542v43.293l1.856-6.913s2.862 9.056 24.52 24.108c.949.66 1.376 1.162 1.386 1.535h30.384V8.361zM15.405 70.384a578 578 0 01-5.16-.69c-2.91-.398-5.417-.74-6.847-.845-.691-.05-1.307-.101-1.856-.151v1.686h13.863z" fill="#4A312C"/></g><path fill-rule="evenodd" clip-rule="evenodd" d="M7.489 30.07c3.925-7.163 15.535-7.176 19.256-10.808 2.374 1.88 6.269 3.335 7.606 7.456-1.337-4.75-5.232-6.935-7.606-9.102-3.72 4.185-15.33 4.2-19.256 12.454z" fill="#000" fill-opacity=".16"/><path fill-rule="evenodd" clip-rule="evenodd" d="M67.394 43.05c-3.745 13.619-16.217 23.624-31.026 23.624-17.77 0-32.174-14.405-32.174-32.174H1.868c0 19.054 15.446 34.5 34.5 34.5 19.054 0 34.5-15.446 34.5-34.5h-1.12v3.876a5.806 5.806 0 01-2.354 4.674z" fill="#A8B6C6"/></svg>
